src/components/Icon/svg-icon/main/mail-archive.svg

<svg xmlns="http://www.w3.org/2000/svg" width="24" height="24"><path fill="#677078" d="M20.54 5.23l-1.39-1.68C18.88 3.21 18.47 3 18 3H6c-.47 0-.88.21-1.16.55L3.46 5.23C3.17 5.57 3 6.02 3 6.5V19c0 1.1.9 2 2 2h14c1.1 0 2-.9 2-2V6.5c0-.48-.17-.93-.46-1.27zM12 17.5L6.5 12H10v-2h4v2h3.5L12 17.5zM5.12 5l.81-1h12l.94 1H5.12z"/></svg>

<svg xmlns="http://www.w3.org/2000/svg" width="24" height="24" viewBox="0 0 24 24">
  <path fill="#677078" d="M20.54,5.23 L19.15,3.55 C18.88,3.21 18.47,3 18,3 L6,3 C5.53,3 5.12,3.21 4.84,3.55 L3.46,5.23 C3.17,5.57 3,6.02 3,6.5 L3,19 C3,20.1 3.9,21 5,21 L19,21 C20.1,21 21,20.1 21,19 L21,6.5 C21,6.02 20.83,5.57 20.54,5.23 Z M12,17.5 L6.5,12 L10,12 L10,10 L14,10 L14,12 L17.5,12 L12,17.5 Z M5.12,5 L5.93,4 L17.93,4 L18.87,5 L5.12,5 Z"/>
</svg>
